X:1
T: O the Breeches full of Stitches
C:
R:Jig
Q:180
K:C
M:6/8
L:1/16
|:G4A2 B4G2|A4G2 A2B4|G4A2 B4G2|A4G2 E4D2|
G4A2 B2A2G2|A4d2 d2B2A2|G4G2 G2E2D2|E4D2 D6:|
|:d4d2 d4B2|A4G2 A2B4|d4d2 d4B2|A4G2 E6|
d4d2 d4B2|g4g2 g4e2|1d4e2 d4B2|A4G2 G2E4:|2d4d2 d2B2A2|G4E2 E2D4||
